icon-themes/sifr_svg/cmd/sc_wrapmenu.svg

<svg viewBox="0 0 16 16" xmlns="http://www.w3.org/2000/svg"><g fill="#555753"><path d="m1 1v2h14v-2zm0 3v2h2v-2zm3 0v8h8v-8zm9 0v2h2v-2zm-8 1h6v6h-6zm-4 2v2h2v-2zm12 0v2h2v-2zm-12 3v2h2v-2zm12 0v2h2v-2zm-12 3v2h14v-2z"/><path d="m5 5v6h6v-6z" opacity=".35"/></g></svg>

<svg xmlns="http://www.w3.org/2000/svg" viewBox="0 0 16 16">
  <path
     style="fill:#555753"
     d="M 1 1 L 1 3 L 15 3 L 15 1 L 1 1 z M 1 4 L 1 6 L 3 6 L 3 4 L 1 4 z M 4 4 L 4 12 L 12 12 L 12 4 L 4 4 z M 13 4 L 13 6 L 15 6 L 15 4 L 13 4 z M 5 5 L 11 5 L 11 11 L 5 11 L 5 5 z M 1 7 L 1 9 L 3 9 L 3 7 L 1 7 z M 13 7 L 13 9 L 15 9 L 15 7 L 13 7 z M 1 10 L 1 12 L 3 12 L 3 10 L 1 10 z M 13 10 L 13 12 L 15 12 L 15 10 L 13 10 z M 1 13 L 1 15 L 15 15 L 15 13 L 1 13 z "
     />
  <path
     style="opacity:0.35;fill:#555753"
     d="M 5 5 L 5 11 L 11 11 L 11 5 L 5 5 z "
     />
</svg>
